assets/js/back-end/assets/icons/open-ended-essay.svg

<svg clip-rule="evenodd" fill-rule="evenodd" stroke-linejoin="round" stroke-miterlimit="2" viewBox="0 0 28 28" xmlns="http://www.w3.org/2000/svg"><path d="m3.593 3.475h21.773v21.371h-21.773z" fill="#ebebeb"/><path d="m28 3c0-1.656-1.344-3-3-3h-22c-1.656 0-3 1.344-3 3v22c0 1.656 1.344 3 3 3h22c1.656 0 3-1.344 3-3zm-11.169 12.367c-.2.206-.347.461-.428.741l-.401 1.392h-.652c-.113 0-.214-.065-.267-.178-.316-.652-1.219-.829-1.738-.387l-.366-1.138c-.086-.269-.327-.449-.6-.449-.272 0-.513.18-.599.449l-.48 1.494c-.039.125-.152.209-.279.209h-.326c-.233 0-.422.196-.422.438 0 .241.189.437.422.437h.326c.491 0 .924-.325 1.079-.807l.28-.872.442 1.38c.027.082.076.154.142.207s.145.085.229.091c.01.001.019.001.029.001.159 0 .305-.093.377-.242l.202-.419c.073-.153.209-.17.264-.17s.191.016.268.179c.194.402.584.652 1.017.652h1.664v1.313h-7.584v-11.373h4.213v2.843c0 .364.281.656.632.656h2.739v2.133l1.264-1.301v-2.037c0-.347-.136-.684-.373-.93l-2.209-2.293c-.237-.247-.558-.386-.893-.386h-5.373c-.697.003-1.263.591-1.263 1.315v11.373c0 .724.566 1.312 1.263 1.312h7.582c.698 0 1.266-.588 1.266-1.312v-2.057l3.546-3.707-1.788-1.856zm6.306-3.792-.839-.871c-.262-.272-.687-.272-.948 0l-.718.745 1.788 1.856.717-.745c.262-.272.262-.713 0-.985zm-8.231-3.153 2.004 2.08h-2.004z" fill="#af6ded"/></svg>

<?xml version="1.0" encoding="UTF-8" standalone="no"?>
<!DOCTYPE svg PUBLIC "-//W3C//DTD SVG 1.1//EN" "http://www.w3.org/Graphics/SVG/1.1/DTD/svg11.dtd">
<svg width="100%" height="100%" viewBox="0 0 28 28" version="1.1" xmlns="http://www.w3.org/2000/svg" xmlns:xlink="http://www.w3.org/1999/xlink" xml:space="preserve" xmlns:serif="http://www.serif.com/" style="fill-rule:evenodd;clip-rule:evenodd;stroke-linejoin:round;stroke-miterlimit:2;">
    <path d="M28,3C28,1.344 26.656,0 25,0L3,0C1.344,0 0,1.344 0,3L0,25C0,26.656 1.344,28 3,28L25,28C26.656,28 28,26.656 28,25L28,3ZM16.831,15.367C16.631,15.573 16.484,15.828 16.403,16.108L16.002,17.5L15.35,17.5C15.237,17.5 15.136,17.435 15.083,17.322C14.767,16.67 13.864,16.493 13.345,16.935L12.979,15.797C12.893,15.528 12.652,15.348 12.379,15.348C12.107,15.348 11.866,15.528 11.78,15.797L11.3,17.291C11.261,17.416 11.148,17.5 11.021,17.5L10.695,17.5C10.462,17.5 10.273,17.696 10.273,17.938C10.273,18.179 10.462,18.375 10.695,18.375L11.021,18.375C11.512,18.375 11.945,18.05 12.1,17.568L12.38,16.696L12.822,18.076C12.849,18.158 12.898,18.23 12.964,18.283C13.03,18.336 13.109,18.368 13.193,18.374C13.203,18.375 13.212,18.375 13.222,18.375C13.381,18.375 13.527,18.282 13.599,18.133L13.801,17.714C13.874,17.561 14.01,17.544 14.065,17.544C14.12,17.544 14.256,17.56 14.333,17.723C14.527,18.125 14.917,18.375 15.35,18.375L17.014,18.375L17.014,19.688L9.43,19.688L9.43,8.315L13.643,8.315L13.643,11.158C13.643,11.522 13.924,11.814 14.275,11.814L17.014,11.814L17.014,13.947L18.278,12.646L18.278,10.609C18.278,10.262 18.142,9.925 17.905,9.679L15.696,7.386C15.459,7.139 15.138,7 14.803,7L9.43,7C8.733,7.003 8.167,7.591 8.167,8.315L8.167,19.688C8.167,20.412 8.733,21 9.43,21L17.012,21C17.71,21 18.278,20.412 18.278,19.688L18.278,17.631L21.824,13.924L20.036,12.068L16.831,15.367ZM23.137,11.575L22.298,10.704C22.036,10.432 21.611,10.432 21.35,10.704L20.632,11.449L22.42,13.305L23.137,12.56C23.399,12.288 23.399,11.847 23.137,11.575ZM14.906,8.422L16.91,10.502L14.906,10.502L14.906,8.422Z" style="fill:rgb(175,109,237);"/>
</svg>
